svgs/thin/scanner-touchscreen.svg

<svg xmlns="http://www.w3.org/2000/svg" viewBox="0 0 512 512"><!--! Font Awesome Pro 6.6.0 by @fontawesome - https://fontawesome.com License - https://fontawesome.com/license (Commercial License) Copyright 2024 Fonticons, Inc. --><path d="M136 0c-4.4 0-8 3.6-8 8l0 48c0 4.4 3.6 8 8 8s8-3.6 8-8l0-48c0-4.4-3.6-8-8-8zM264 0c-4.4 0-8 3.6-8 8l0 48c0 4.4 3.6 8 8 8s8-3.6 8-8l0-48c0-4.4-3.6-8-8-8zM384 8l0 272c0 4.4 3.6 8 8 8s8-3.6 8-8L400 8c0-4.4-3.6-8-8-8s-8 3.6-8 8zm64 0l0 272c0 4.4 3.6 8 8 8s8-3.6 8-8L464 8c0-4.4-3.6-8-8-8s-8 3.6-8 8zM320 8l0 48c0 4.4 3.6 8 8 8s8-3.6 8-8l0-48c0-4.4-3.6-8-8-8s-8 3.6-8 8zM192 8l0 48c0 4.4 3.6 8 8 8s8-3.6 8-8l0-48c0-4.4-3.6-8-8-8s-8 3.6-8 8zM504 0c-4.4 0-8 3.6-8 8l0 272c0 4.4 3.6 8 8 8s8-3.6 8-8L512 8c0-4.4-3.6-8-8-8zM288 112c26.5 0 48 21.5 48 48l0 288c0 26.5-21.5 48-48 48L64 496c-26.5 0-48-21.5-48-48l0-288c0-26.5 21.5-48 48-48l224 0zM64 96C28.7 96 0 124.7 0 160L0 448c0 35.3 28.7 64 64 64l224 0c35.3 0 64-28.7 64-64l0-288c0-35.3-28.7-64-64-64L64 96zm40 80l144 0c13.3 0 24 10.7 24 24l0 208c0 13.3-10.7 24-24 24l-144 0c-13.3 0-24-10.7-24-24l0-208c0-13.3 10.7-24 24-24zM64 200l0 208c0 22.1 17.9 40 40 40l144 0c22.1 0 40-17.9 40-40l0-208c0-22.1-17.9-40-40-40l-144 0c-22.1 0-40 17.9-40 40z"/></svg>

<svg xmlns="http://www.w3.org/2000/svg" viewBox="0 0 512 512"><!--! Font Awesome Pro 6.4.0 by @fontawesome - https://fontawesome.com License - https://fontawesome.com/license (Commercial License) Copyright 2023 Fonticons, Inc. --><path d="M136 0c-4.4 0-8 3.6-8 8V56c0 4.4 3.6 8 8 8s8-3.6 8-8V8c0-4.4-3.6-8-8-8zM264 0c-4.4 0-8 3.6-8 8V56c0 4.4 3.6 8 8 8s8-3.6 8-8V8c0-4.4-3.6-8-8-8zM384 8V280c0 4.4 3.6 8 8 8s8-3.6 8-8V8c0-4.4-3.6-8-8-8s-8 3.6-8 8zm64 0V280c0 4.4 3.6 8 8 8s8-3.6 8-8V8c0-4.4-3.6-8-8-8s-8 3.6-8 8zM320 8V56c0 4.4 3.6 8 8 8s8-3.6 8-8V8c0-4.4-3.6-8-8-8s-8 3.6-8 8zM192 8V56c0 4.4 3.6 8 8 8s8-3.6 8-8V8c0-4.4-3.6-8-8-8s-8 3.6-8 8zM504 0c-4.4 0-8 3.6-8 8V280c0 4.4 3.6 8 8 8s8-3.6 8-8V8c0-4.4-3.6-8-8-8zM288 112c26.5 0 48 21.5 48 48V448c0 26.5-21.5 48-48 48H64c-26.5 0-48-21.5-48-48V160c0-26.5 21.5-48 48-48H288zM64 96C28.7 96 0 124.7 0 160V448c0 35.3 28.7 64 64 64H288c35.3 0 64-28.7 64-64V160c0-35.3-28.7-64-64-64H64zm40 80H248c13.3 0 24 10.7 24 24V408c0 13.3-10.7 24-24 24H104c-13.3 0-24-10.7-24-24V200c0-13.3 10.7-24 24-24zM64 200V408c0 22.1 17.9 40 40 40H248c22.1 0 40-17.9 40-40V200c0-22.1-17.9-40-40-40H104c-22.1 0-40 17.9-40 40z"/></svg>
